X: 1
T:Ennis Reel
M:4/4
L:1/8
Q:120
R:Polka
K:G
"G"D3 E DCB,C|D2E2 "Em"G3 A|"G"B2 d2 "D"A2 BA|"C" G2 E2 E2 GE|!
"G"D3 E DCB,C|D2E2 "Em"G3 A|"G"B2 d2 "D"A2 BA|"G"G2 G2:|!
"G"B2 d2 d2 cB|"C"c2e2e2dc|"G"B2d2A2BA|"C"G2E2E2 GA|!
"G"B2 d2 d2 cB|"C"c2e2e2"Em"f2|g2e2f2d2|"Bm"e4e2"Em" ef|!
g2e2 "Bm"f2d2|"Em"efed B2 GA|B2d2"Bm"A2BA|"C"G2E2E2GE|!
"G"D3 E DCB,C|"Em"D2E2 "C"G3 A|"G"B2d2"D"A2BA|"G"G4G4|!
